!! 00000] TT[WS
!!!OTL: Fenhong lian
!!!ARE: Asia, China,ÿShanxi qixian
!! Ethnic Group: Han
!! WI, 101 (2)
!!!SCT: J0119
!!!YEM: Copyright 1995, estate of Helmut Schaffrath.
**kern
*ICvox
*Ivox
*M2/4
*k[b-]
*F:
{8ff
16dd
16cc
8a
8dd
=1
4.cc
8dd
=2
8a
8cc
8g
8a
=3
2cc}
=4
{8cc
8a
8cc
8dd
=5
8d
16c
16d
4f
=6
8g
8cc
8f
8d
=7
2c}
=8
{8.a
16a
8a
8a
=9
8g
8a
8.cc
16ff
=10
8a
16a
16g
8f
16d
16f
=11
2g}
=12
{8cc
8a
8.cc
16dd
=13
8d
16c
16d
4f
=14
8g
8cc
8f
8d
=15
2c}
==
!!!AGN: Xiaodiao. Qingge, Aisu
!!!ONB: ESAC (Essen Associative Code) Database: CHINA
!!!AMT: simple duple
!!!AIN: vox
!!!EED: Helmut Schaffrath
!!!EEV: 1.0
*-
